<?xml version="1.0" encoding="UTF-8"?>
<map version="1.10" tiledversion="1.11.2" orientation="orthogonal" renderorder="right-down" width="20" height="45" tilewidth="16" tileheight="16" infinite="0" nextlayerid="5" nextobjectid="1">
 <editorsettings>
  <export target="main-path.csv" format="csv"/>
 </editorsettings>
 <tileset firstgid="1" source="plains.tsx"/>
 <layer id="3" name="Path" width="20" height="45">
  <data encoding="csv">
0,0,14,16,0,0,0,0,0,0,0,0,14,6,9,10,0,0,0,0,
0,0,0,0,0,19,0,0,0,0,0,20,22,8,9,10,0,0,0,0,
0,0,19,2,3,3,4,0,0,0,0,0,2,12,9,10,0,0,0,0,
0,0,0,14,15,15,18,4,1,0,19,2,12,9,5,16,0,0,0,0,
0,0,0,0,0,2,17,16,13,0,0,8,9,5,16,0,0,0,0,0,
0,0,0,0,0,8,11,3,4,0,0,8,9,10,0,0,0,0,0,0,
0,0,0,0,0,14,6,9,11,3,4,8,9,10,0,0,0,0,0,0,
0,0,0,0,0,0,14,15,6,9,11,12,9,10,0,0,0,0,0,0,
0,0,0,19,0,0,0,0,14,6,9,9,9,10,0,19,0,0,0,0,
0,2,4,0,0,0,0,0,0,8,9,9,9,10,0,0,0,0,0,0,
2,17,16,0,0,0,0,0,0,8,9,9,9,11,4,1,0,0,0,0,
14,16,0,0,0,0,0,2,3,17,15,15,6,9,10,13,0,0,0,0,
22,0,0,0,0,0,0,8,9,10,0,2,12,9,10,0,0,0,0,0,
0,0,0,0,0,0,0,8,9,11,3,12,9,9,10,0,0,0,0,0,
0,0,0,0,0,1,0,14,6,9,9,9,9,9,11,4,0,0,0,0,
0,0,0,0,0,13,0,0,8,9,9,9,9,5,15,16,0,0,0,0,
0,0,0,0,0,0,0,0,14,15,15,6,5,16,1,0,0,0,0,0,
0,0,0,0,0,0,0,0,0,0,0,14,16,0,13,0,0,0,0,0,
0,0,0,0,0,0,0,0,20,21,22,0,0,0,0,0,0,0,0,0,
0,0,0,0,0,0,0,0,0,0,0,19,0,0,0,0,0,0,0,0,
0,0,0,0,0,0,0,0,0,0,0,0,0,1,0,0,0,0,0,0,
0,0,0,0,0,0,0,0,0,0,0,0,0,7,0,0,0,0,0,0,
0,0,0,0,0,0,0,0,0,0,0,0,0,13,0,0,0,0,0,0,
0,0,0,0,0,0,0,0,0,0,0,0,0,0,0,0,0,0,0,0,
0,0,0,0,0,0,0,0,0,0,0,19,0,0,0,0,0,0,0,0,
0,0,0,0,0,0,0,0,0,0,0,0,0,0,0,0,0,0,0,0,
0,0,0,0,0,0,0,0,0,0,0,0,20,22,0,0,0,0,0,0,
0,0,0,0,0,0,0,0,0,0,0,0,0,0,0,0,0,0,0,0,
0,0,0,0,0,0,0,0,0,1,0,0,19,0,0,0,0,0,0,0,
0,0,0,0,0,0,0,0,0,13,0,0,0,0,0,0,0,0,20,21,
0,0,0,0,0,0,0,0,0,0,0,0,0,0,0,0,0,0,0,0,
0,0,0,0,0,0,19,0,0,0,0,1,0,0,2,4,0,0,0,0,
0,0,0,0,0,0,0,0,0,0,0,13,0,0,14,16,0,0,0,0,
0,0,0,0,0,0,19,0,0,0,0,0,19,0,0,0,0,0,0,0,
0,0,0,0,20,22,0,0,0,19,2,4,0,0,0,0,0,0,0,0,
0,0,0,0,0,0,0,0,0,2,17,16,0,0,0,0,0,0,0,0,
0,19,0,0,0,0,0,0,0,8,10,0,0,0,0,0,0,0,0,0,
0,0,0,0,0,0,0,0,0,14,18,4,0,0,0,0,0,0,0,0,
0,0,0,0,0,0,0,0,0,0,8,11,4,0,0,0,0,0,0,0,
0,0,0,0,0,0,0,0,0,19,14,6,10,0,0,19,0,0,0,0,
0,0,0,0,0,0,0,0,0,0,2,12,10,0,0,0,0,0,0,0,
0,0,0,0,0,0,0,0,2,3,12,5,16,0,0,0,0,0,0,0,
0,0,0,0,0,0,0,0,8,9,9,10,0,0,19,0,0,0,0,0,
0,0,0,0,0,19,0,2,12,9,9,11,3,4,0,0,0,0,0,0,
0,0,0,0,0,0,0,8,9,5,15,6,9,11,4,0,0,1,0,0
</data>
 </layer>
 <layer id="2" name="Mountain" width="20" height="45">
  <data encoding="csv">
33,34,0,0,0,43,38,39,30,29,40,0,0,0,0,0,0,0,0,0,
33,34,0,0,0,0,0,43,38,40,0,0,0,0,0,0,0,0,0,26,
33,34,0,0,0,0,0,0,0,0,43,0,0,0,0,0,0,0,0,32,
29,40,0,0,0,0,0,0,0,0,0,0,0,0,0,0,0,0,26,36,
34,44,46,0,0,0,0,0,0,0,0,0,0,0,0,0,0,26,36,33,
35,27,28,0,0,0,0,0,0,0,0,0,0,0,0,0,0,32,33,33,
33,33,34,43,0,0,0,0,0,0,0,0,0,0,0,0,0,32,33,33,
29,39,40,0,0,0,0,0,0,0,0,0,0,0,0,0,25,32,33,33,
34,43,0,0,0,0,0,0,0,0,0,0,0,0,0,0,37,32,33,33,
40,0,0,0,0,0,0,0,0,0,0,0,0,0,0,0,0,32,33,33,
0,0,0,0,0,0,0,0,0,0,0,0,0,0,0,0,0,32,33,33,
0,0,0,0,0,0,0,0,0,0,0,0,0,0,0,0,0,38,30,33,
0,0,0,0,0,0,0,0,0,0,43,0,0,0,0,0,0,0,32,33,
0,0,0,0,0,0,0,0,0,0,0,0,0,0,0,0,0,0,32,33,
0,0,0,0,0,0,0,0,0,0,0,0,0,0,0,0,0,0,38,30,
0,0,0,0,0,0,0,43,0,0,0,0,0,0,0,0,0,0,25,32,
0,0,0,43,26,27,28,0,0,0,0,0,0,0,0,43,0,0,37,32,
0,25,0,0,32,33,35,28,0,0,0,0,0,0,0,0,0,0,26,36,
0,37,0,0,38,39,39,40,0,0,0,0,0,0,0,0,0,0,32,33,
27,28,0,0,44,46,43,0,0,0,0,0,0,0,0,0,0,0,32,33,
33,35,27,28,0,0,0,0,43,0,0,0,0,0,0,0,0,0,32,33,
33,33,33,35,27,27,28,0,0,0,0,0,0,0,0,0,0,0,32,33,
33,33,33,33,33,33,34,0,0,0,0,0,0,0,0,0,0,0,38,30,
30,33,33,33,33,33,34,43,0,0,0,0,0,0,0,0,0,0,43,32,
36,33,33,33,33,29,40,0,25,0,0,0,0,0,0,0,0,0,0,32,
33,33,33,29,39,40,0,0,37,0,0,0,0,0,0,0,0,0,0,32,
33,33,33,34,43,0,0,0,0,0,0,0,0,0,0,0,0,0,0,32,
33,33,33,35,28,0,0,0,43,0,0,0,0,0,0,0,0,0,0,38,
33,33,33,33,34,0,25,0,0,0,0,0,0,0,0,0,0,0,0,0,
33,33,29,39,40,0,37,0,0,0,0,0,0,0,0,0,0,0,0,0,
33,33,34,0,0,0,0,0,0,0,0,0,0,0,0,0,0,0,0,0,
29,39,40,43,0,0,0,0,0,0,43,0,0,0,0,0,0,0,0,0,
40,43,0,0,0,0,0,0,0,0,0,0,0,0,0,0,0,0,0,0,
0,0,0,0,0,0,0,0,0,0,0,0,0,0,0,0,0,0,0,0,
43,0,0,0,0,0,0,0,0,0,0,0,0,0,0,0,0,0,0,0,
0,0,0,0,0,0,0,0,0,0,0,0,0,0,0,0,0,0,0,0,
0,0,0,0,0,0,0,0,0,0,0,0,0,0,0,0,0,0,0,0,
0,0,0,0,0,0,0,0,0,0,0,0,0,0,0,0,0,0,0,0,
43,0,0,0,0,0,0,0,0,0,0,0,0,0,0,0,0,0,0,0,
26,28,0,0,0,0,0,0,0,0,0,0,0,0,0,0,0,0,0,0,
32,34,0,0,0,0,0,0,0,0,0,0,0,0,0,0,0,0,0,0,
36,34,0,0,0,0,0,0,0,0,0,0,0,0,0,0,0,0,0,0,
33,34,43,0,0,0,0,0,0,0,0,0,43,0,0,0,0,0,0,0,
30,35,28,0,0,0,0,0,0,0,0,0,0,0,0,0,0,0,0,0,
38,30,35,28,43,0,0,0,0,0,0,0,0,0,0,0,0,0,0,0
</data>
 </layer>
 <layer id="4" name="Berry" width="20" height="45">
  <data encoding="csv">
0,0,0,0,0,0,0,0,0,0,0,0,0,0,0,0,50,52,68,70,
0,0,0,0,0,0,0,0,0,0,0,0,0,0,0,0,56,59,52,0,
0,0,0,0,0,0,0,0,0,67,0,0,0,0,0,0,56,53,64,0,
0,0,0,0,0,0,0,0,0,0,0,0,0,0,0,0,62,64,0,0,
0,0,0,0,0,0,0,0,0,50,52,0,0,0,0,0,0,0,0,0,
0,0,0,0,0,0,0,0,0,62,64,0,0,0,0,67,0,0,0,0,
0,0,0,0,0,0,0,0,0,0,0,0,0,0,0,0,0,0,0,0,
0,0,0,0,0,67,0,0,0,0,0,0,0,0,0,0,0,0,0,0,
0,0,0,0,0,0,50,52,0,0,0,0,0,0,0,0,0,0,0,0,
0,0,0,0,68,70,56,59,52,0,0,0,0,0,0,0,0,0,0,0,
0,0,0,0,0,0,62,63,64,0,0,0,0,0,0,0,0,0,0,0,
0,0,0,0,0,0,0,0,0,0,0,0,0,0,0,0,0,0,0,0,
0,0,0,0,0,67,0,0,0,0,0,0,0,0,0,0,0,0,0,0,
0,50,52,0,0,0,0,0,0,0,0,0,0,0,0,0,0,0,0,0,
50,60,58,0,0,0,0,0,0,0,0,0,0,0,0,0,49,0,0,0,
65,63,64,0,0,0,0,0,0,0,0,0,0,0,0,0,61,0,0,0,
58,0,0,0,0,0,0,0,0,0,0,0,0,0,0,0,0,0,0,0,
58,0,0,0,0,0,0,0,0,0,0,0,0,0,0,0,0,67,0,0,
64,0,0,0,0,0,0,0,0,0,0,0,0,0,0,0,0,0,0,0,
0,0,0,0,0,0,0,0,0,0,0,0,0,0,0,0,0,0,0,0,
0,0,0,0,0,67,0,0,0,0,0,0,0,0,0,0,0,0,0,0,
0,0,0,0,0,0,0,0,0,0,0,0,0,0,0,0,0,0,0,0,
0,0,0,0,0,0,0,0,0,0,0,0,0,0,0,0,0,0,0,0,
0,0,0,0,0,0,0,0,0,0,0,0,0,0,0,0,50,52,0,0,
0,0,0,0,0,0,0,0,0,0,0,0,0,0,0,0,56,59,52,0,
0,0,0,0,0,0,0,0,0,0,0,0,0,0,0,0,62,63,64,0,
0,0,0,0,0,0,0,0,0,0,0,0,0,0,0,0,0,0,0,0,
0,0,0,0,0,0,0,0,0,0,0,0,0,0,0,0,0,0,67,0,
0,0,0,0,0,0,0,0,0,0,0,0,0,0,0,0,0,0,0,0,
0,0,0,0,0,0,0,0,0,0,0,0,0,0,0,0,0,0,0,0,
0,0,0,0,67,0,0,0,0,0,0,0,0,0,0,0,0,0,0,50,
0,0,0,0,0,0,0,0,0,0,0,0,0,0,0,0,0,67,0,56,
0,0,0,0,0,0,0,0,0,0,0,0,0,0,0,0,0,0,50,60,
0,0,0,0,0,0,0,0,0,0,0,0,0,0,0,0,0,0,56,53,
0,0,0,0,0,0,0,0,0,0,0,0,0,0,0,0,0,0,56,59,
0,0,0,0,0,0,0,0,0,0,0,0,0,0,0,0,0,50,60,57,
0,0,0,0,0,0,0,67,0,0,0,0,0,0,0,0,0,62,64,50,
0,0,0,0,50,52,0,0,0,0,0,0,0,0,0,0,67,0,67,62,
0,0,0,50,65,66,52,0,0,0,0,0,0,0,0,0,0,0,0,50,
0,0,0,62,64,62,64,0,0,0,0,0,0,0,0,0,0,67,0,56,
0,0,0,0,0,0,0,0,0,0,0,0,0,0,0,0,0,0,50,60,
0,0,0,0,0,0,0,0,0,0,0,0,0,0,0,0,0,0,56,53,
0,0,0,0,0,0,0,0,0,0,0,0,0,0,0,0,0,0,56,59,
0,0,0,0,0,0,0,0,0,0,0,0,0,0,0,0,0,0,62,54,
0,0,0,0,0,50,52,0,0,0,0,0,0,0,0,0,0,0,0,56
</data>
 </layer>
</map>
